X:144
T:score226
L:1/8
Q:1/4=96
M:4/4
I:linebreak $
K:D
 (DE)FG ABcd | Tc8 | (dc)BA GFED |$ (B4 A2) c2 | (d2 B2) A2 c2 | (d2 B2) A2 c2 |$ d2 z2 d2 z2 | %7
 D8 |] %8
